X: 35624
T: Sail-Maker's Wife, The
R: jig
M: 6/8
K: Edorian
|:D|E2e edB|A2B GED|E2e edB|ABd e2D|
E2e edB|A2B GED|EGB dAF|GED E2:|
|:f|g2e fdB|ABd e2f|g2e fdB|dBG E2f|
g2e fdB|Ade dBG|EGB dAF|GED E2:|

